(
b=Buffer.read(s,thisProcess.nowExecutingPath.dirname++"/amenbreak_bpm136.wav_processed.wav");
)

b=Buffer.read(s,"/media/zns/backup4tb/spliceloop/chords-synth-dm/120/MGxSM_120_synth_loop_water_vocal_chords_Dmin_keyDmin_bpm120_beats16_.flac")
{PlayBuf.ar(2,b,loop:1)}.play;
